usr/share/icons/biglinux-icons-material/32/actions/mail-message-new.svg

<svg version="1.1" viewBox="0 0 32 32" xmlns="http://www.w3.org/2000/svg">
 <defs>
  <style id="current-color-scheme" type="text/css">.ColorScheme-Text {
        color:#dedede;
      }</style>
 </defs>
 <path class="ColorScheme-Text" d="m25 18v4h-4v1h4v4h1v-4h4v-1h-4v-4z" fill="currentColor"/>
 <path class="ColorScheme-Text" d="m6 5c-2.1263 0-3.8499 1.6437-3.9863 3.7344l-0.013672-0.011719v14.557l0.013672-0.01172c0.13738 2.0897 1.8607 3.7324 3.9863 3.7324h14v-1h-14c-1.662 0-3-1.338-3-3v-0.49609l7.5801-5.8809 3.6035 2.7949c0.99892 0.7749 2.6339 0.7749 3.6328 0l3.6035-2.7949 0.80273-0.62305 6.7773-5.2578v6.2578h1v-8.2812l-0.01367 0.011719c-0.13833-2.0888-1.8613-3.7305-3.9863-3.7305zm0 1h20c1.662 0 3 1.338 3 3v0.49414l-11.988 9.3008c-0.56803 0.44064-1.4574 0.44255-2.0254 2e-3l-11.986-9.2989v-0.49805c0-1.662 1.338-3 3-3zm-3 4.7422 6.7773 5.2578-6.7773 5.2578z" fill="currentColor"/>
</svg>

<svg xmlns="http://www.w3.org/2000/svg" viewBox="0 0 32 32"><defs><style id="current-color-scheme" type="text/css">.ColorScheme-Text{color:#dedede}</style></defs><path fill="currentColor" d="M25 18v4h-4v1h4v4h1v-4h4v-1h-4v-4z" class="ColorScheme-Text"/><path fill="currentColor" d="M6 5a3.987 3.987 0 0 0-3.986 3.734L2 8.723V23.28l.014-.012A3.987 3.987 0 0 0 6 27h14v-1H6c-1.662 0-3-1.338-3-3v-.496l7.58-5.88 3.604 2.794c.999.775 2.634.775 3.632 0l3.604-2.795.803-.623L29 10.743V17h1V8.72l-.014.01A3.987 3.987 0 0 0 26 5zm0 1h20c1.662 0 3 1.338 3 3v.494l-11.988 9.3c-.568.442-1.457.443-2.025.003L3 9.498V9c0-1.662 1.338-3 3-3zm-3 4.742L9.777 16 3 21.258z" class="ColorScheme-Text"/></svg>
